svg/flag_variant_outline.svg

<?xml version="1.0" encoding="UTF-8"?><!DOCTYPE svg PUBLIC "-//W3C//DTD SVG 1.1//EN" "http://www.w3.org/Graphics/SVG/1.1/DTD/svg11.dtd"><svg xmlns="http://www.w3.org/2000/svg" xmlns:xlink="http://www.w3.org/1999/xlink" version="1.1" id="mdi-flag-variant-outline" width="24" height="24" viewBox="0 0 24 24"><path d="M6,3A1,1 0 0,1 7,4V4.88C8.06,4.44 9.5,4 11,4C14,4 14,6 16,6C19,6 20,4 20,4V12C20,12 19,14 16,14C13,14 13,12 11,12C8,12 7,14 7,14V21H5V4A1,1 0 0,1 6,3M7,7.25V11.5C7,11.5 9,10 11,10C13,10 14,12 16,12C18,12 18,11 18,11V7.5C18,7.5 17,8 16,8C14,8 13,6 11,6C9,6 7,7.25 7,7.25Z" /></svg>

<svg xmlns="http://www.w3.org/2000/svg" viewBox="0 0 24 24"><path d="M6 3a1 1 0 0 1 1 1v.88C8.06 4.44 9.5 4 11 4c3 0 3 2 5 2 3 0 4-2 4-2v8s-1 2-4 2-3-2-5-2c-3 0-4 2-4 2v7H5V4a1 1 0 0 1 1-1m1 4.25v4.25S9 10 11 10s3 2 5 2 2-1 2-1V7.5S17 8 16 8c-2 0-3-2-5-2S7 7.25 7 7.25"/></svg>
